X: 294
T: Ber Küşa-yı
C: Basmacı Abdi Efendi
O: Turkey
F: http://compmusic.upf.edu/node/140
N: acemasiran--beste--devrikebir--ber_kusa-yi--basmaci_abdi_efendi
N: makam= acemasiran
N: form= beste
N: usul= devrikebir = 28/4
M: 28/4
L: 1/16
K: C _B   
Q: 1/4=72
%%MIDI tuningsystem comma53
f8 f6e2  | z2c4c2 d2cd e2de  | f2ef g2a2 g3f e2f2  | 
w:   |   |   | 
e4 f4 z4 f4  | f6e2 z2e4d2  | d2e2 d2c2 d2f2 e2d2  | \
w:   |   |   | 
d3c _1/4B2c2 B4 c4  | 
w:   | 
z4 d2e2 d4 ^c4  | ^c2d4e2 gffe d2g2  | \
w:   |   | 
gf2e edd^c d6a2  | 
w:   | 
agfe f4 z4 e2f2  | g2a2 g2a2 f4 a4  | \
w:   |   | 
a2gb a2g2 f3e defg  | 
w:   | 
e2f6 f4 z4  | c4 f4 f3e defg  | e2f6 z4 e2f2  | \
w:   |   |   | 
f4 f4 f4 f3e  | 
w:   | 
e2f2 edd4z4d2  | d2g6 f2a2 g2f2  | e2g2 f2e2 d2e2 d2e2  | 
w:   |   |   | 
d2c2 d3c ^f2_7/8ed dcc_1/4B  | c4 z4 d2e2 d2e2  | \
w:   |   | 
d2c2 c2c4e2 d6_1/4B2 c3B c2de d2c2  | 
w:   | 
_1/4B2A2 A4 d4 z4  | A2B2 A2B2 A2G2 F4  | \
w:   |   | 
A4 A2GB A2G2 F3E  | DEFG E2F6 F4  | 
w:   |   | 
z4 g6a2 a8 a4 a4 a2b4a2 g2^f2 g2a2 g2c'6 baa6 z2c'3bb3aa3gg2 =f2z2  | 
w:   | 
g_7/8ag2 a2a2 ga_1/4b2 agg2  | fe_7/8a3gg3ff2 e2gf  | 
w:   |   | 
fef4z4e2 f2f2  | _7/8a2g2 f2z2 f4 a2a2  | \
w:   |   | 
g4 f2f2 e2e2 _7/8d2d2  | 
w:   | 
c4 _1/4B2c2 _7/8d2cB c4  | z4 c2_7/8d2 e2f2 g2_7/8a2  | \
w:   |   | 
f4 _7/8a2g2 f2e4_7/8d2  | _7/8d3c _1/4B2e2 dc_B2 c6c4z4c4g4g3fef g_7/8af2 g6z4f2 g2f4a4a2 g2g2 f2ag fef4z4f2 f2a6  | 
w:   |   | 
g2_1/4b2 _7/8a2g2 f2a2 g2f2  | e2g2 f2e2 _7/8d2d3cc3_1/4BBA ABc4z4c2  | 
w:   |   | 
_7/8d2c2 d2c2 _1/4B2z2 c4  | f2f2 e4 d2d2 c4  | \
w:   |   | 
B2z2 A4 G2A2 B2AG  | 
w:   | 
A4 z4 A2B2 A2B2  | A2G2 F4 A4 A2GB  | \
w:   |   | 
A2G2 F3E DEFG E2F6 F4 z4 f8 f6e2 z2c4c2 d2cd e2de f2ef  | 
w:   | 
g2a2 g3f e2f2 e4  | f4 z4 f4 f6e2 z2e4d2 d2e2  | \
w:   |   | 
d2c2 d2f2 e2d2 d3c  | 
w:   | 
_1/4B2c2 B4 c4 z4  | d2e2 d4 ^c4 c2d4e2 gffe d2g2 gf2e  | 
w:   |   | 
edd^c d6a2 agfe  | f4 z4 e2f2 g2a2  | \
w:   |   | 
g2a2 f4 a4 a2gb  | 
w:   | 
a2g2 f3e defg e2f6 f4 z4 c4  | f4 f3e defg e2f6 z4 e2f2 f4  | 
w:   |   | 
f4 f4 f3e e2f2  | edd4z4d2 d2g6 f2a2 g2f2 e2g2  | \
w:   |   | 
f2e2 d2e2 d2e2 d2c2  | 
w:   | 
d3c ^f2_7/8ed dcc_1/4B c4  | z4 d2e2 d2e2 d2c2  | \
w:   |   | 
c2c4e2 d6_1/4B2  | 
w:   | 
c3_1/4B c2de d2c2 B2A2  | A4 d4 z4 A2B2  | \
w:   |   | 
A2B2 A2G2 F4 A4  | A2GB A2G2 F3E DEFG  | 
w:   |   | 
E2F6 F4 z4  | |


